source/images/amal.svg

<svg width="164" height="232" viewBox="0 0 164 232" fill="none" xmlns="http://www.w3.org/2000/svg">
<path d="M154.939 134.535C142.439 121.635 155.839 111.335 162.139 81.7354C164.639 70.0354 164.839 58.3354 159.239 50.1354C149.339 35.9354 128.439 33.2354 128.239 33.2354L124.539 32.8354L123.639 29.3354C120.439 13.6354 108.539 0.735377 81.7394 0.0353773C48.0394 -0.864623 24.5394 15.4354 10.5394 45.7354C3.83941 60.2354 -0.460592 77.3354 0.0394084 93.9354C0.339408 105.435 2.53941 114.635 6.63941 121.835C10.9394 129.435 16.7394 135.235 23.7394 139.235C30.8394 143.235 38.5394 145.235 46.6394 145.235C56.2394 145.235 64.6394 142.635 70.9394 137.635C75.0394 134.335 78.2394 130.435 80.6394 125.335C75.9394 127.435 70.1394 128.835 63.2394 128.935C52.3394 129.035 43.1394 125.535 36.2394 118.735C29.4394 112.035 26.0394 102.935 26.0394 91.8354C26.0394 77.7354 30.0394 65.9354 37.7394 56.9354C45.9394 47.3354 56.6394 42.4354 69.6394 42.4354C80.7394 42.4354 89.8394 45.9354 96.5394 52.8354C103.239 59.6354 106.639 68.7354 106.639 79.7354C106.639 85.3354 105.839 89.3354 104.839 94.9354L104.739 95.2354L100.039 115.935C99.2394 119.735 98.7394 123.335 98.7394 126.735C98.7394 135.935 101.239 142.335 106.639 147.135L106.739 147.235C112.339 152.135 120.739 154.635 131.739 154.635C140.939 154.635 148.439 150.835 155.439 142.535C157.039 140.635 158.539 139.035 159.939 137.635C158.139 136.935 156.339 136.035 154.939 134.535Z" fill="#3E40F8"/>
<path d="M58.0393 108.535C57.5393 108.535 57.0393 108.435 56.4393 108.335C53.0393 107.635 50.5393 105.335 49.3393 101.735C48.9393 100.535 49.6393 99.3355 50.7393 98.9355C51.9393 98.5355 53.1393 99.2355 53.5393 100.335C54.2393 102.435 55.4393 103.535 57.3393 103.935C60.2393 104.535 62.5393 101.335 63.1393 100.335C63.8393 99.3355 65.1393 99.0355 66.1393 99.6355C67.1393 100.335 67.4393 101.635 66.8393 102.635C64.4393 106.535 61.2393 108.535 58.0393 108.535Z" fill="#3E40F8"/>
<path d="M47.1395 95.1353C46.5395 95.1353 46.0395 94.9353 45.5395 94.5353L38.9395 87.9353L41.2395 86.4353C49.7395 80.8353 49.3395 71.8353 49.3395 71.4353C49.2395 70.2353 50.2395 69.2353 51.4395 69.1353C52.6395 69.0353 53.6395 69.9353 53.7395 71.1353C53.7395 71.6353 54.3395 81.5353 45.8395 88.5353L48.7395 91.4353C49.6395 92.3353 49.6395 93.7353 48.7395 94.5353C48.2395 94.9353 47.7395 95.1353 47.1395 95.1353Z" fill="#3E40F8"/>
<path d="M74.3392 84.7353C73.8392 84.7353 73.3392 84.6353 72.7392 84.5353C68.4392 83.6353 65.7392 80.3353 65.0392 75.2353C64.9392 74.0353 65.7392 72.9353 66.9392 72.8353C68.1392 72.7353 69.2392 73.5353 69.3392 74.7353C69.6392 76.9353 70.5392 79.6353 73.5392 80.2353C76.4392 80.8353 78.7392 77.6353 79.3392 76.6353C80.0392 75.6353 81.3392 75.3353 82.3392 75.9353C83.3392 76.6353 83.6392 77.9353 83.0392 78.9353C80.7392 82.6353 77.5392 84.7353 74.3392 84.7353Z" fill="#3E40F8"/>
<path d="M71.2394 92.6353C70.2394 92.6353 69.1394 92.5353 68.1394 92.2353C64.4394 91.3353 61.4394 88.9353 59.5394 85.5353C57.6394 82.1353 57.1394 78.1353 58.0394 74.2353C58.9394 70.3353 61.2394 66.9353 64.4394 64.8353C67.7394 62.6353 71.5394 61.9353 75.1394 62.8353C82.6394 64.6353 87.2394 72.7353 85.2394 80.8353C84.3394 84.7353 82.0394 88.1353 78.8394 90.2353C76.5394 91.8353 73.9394 92.6353 71.2394 92.6353ZM72.1394 65.5353C70.0394 65.5353 68.0394 66.1353 66.1394 67.4353C63.5394 69.1353 61.7394 71.9353 60.9394 75.0353C60.1394 78.2353 60.6394 81.4353 62.1394 84.2353C63.6394 86.9353 66.0394 88.7353 68.8394 89.4353C71.6394 90.1353 74.6394 89.5353 77.2394 87.8353C79.8394 86.1353 81.6394 83.3353 82.4394 80.2353C84.0394 73.7353 80.4394 67.2353 74.5394 65.8353C73.7394 65.5353 72.9394 65.5353 72.1394 65.5353Z" fill="#FF626D"/>
<path d="M59.8393 74.4354C59.7393 74.4354 59.6393 74.4354 59.4393 74.4354C58.6393 74.2354 58.1393 73.4354 58.3393 72.6354C58.8393 70.7354 58.0393 68.9354 56.7393 68.6354C55.4393 68.3354 53.9393 69.6354 53.5393 71.5354C53.3393 72.3354 52.5393 72.8354 51.7393 72.6354C50.9393 72.4354 50.4393 71.6354 50.6393 70.8354C51.4393 67.3354 54.5393 65.0354 57.5393 65.7354C60.4393 66.4354 62.1393 69.8354 61.3393 73.4354C61.1393 73.9354 60.4393 74.4354 59.8393 74.4354Z" fill="#FF626D"/>
<path d="M44.7394 78.1354C44.1394 78.1354 43.4394 78.0354 42.8394 77.9354C39.2394 77.2354 36.8394 73.9354 36.0394 71.1354C35.7394 69.9354 35.6394 68.7354 35.8394 67.7354C36.0394 66.5354 37.2394 65.7354 38.4394 66.0354C39.6394 66.2354 40.4394 67.4354 40.1394 68.6354C40.0394 69.0354 40.1394 69.5354 40.2394 70.0354C40.6394 71.5354 41.9394 73.3354 43.6394 73.7354C46.6394 74.3354 48.5394 72.2354 49.6394 70.3354C50.2394 69.2354 51.5394 68.9354 52.6394 69.5354C53.7394 70.1354 54.0394 71.4354 53.4394 72.5354C51.3394 76.1354 48.2394 78.1354 44.7394 78.1354Z" fill="#3E40F8"/>
<path d="M88.1393 81.8354C87.4393 81.8354 86.7393 81.2354 86.6393 80.5354C86.5393 79.7354 87.1393 78.9354 87.9393 78.8354L111.039 75.8354C111.839 75.7354 112.639 76.3354 112.739 77.1354C112.839 77.9354 112.239 78.7354 111.439 78.8354L88.3393 81.8354C88.2393 81.8354 88.1393 81.8354 88.1393 81.8354Z" fill="#FF626D"/>
<path d="M39.8393 84.3353C38.8393 84.3353 37.9393 84.2353 36.9393 84.0353C29.9393 82.3353 25.6393 74.8353 27.4393 67.2353C28.3393 63.5353 30.4393 60.4353 33.4393 58.4353C36.4393 56.4353 40.0393 55.7353 43.4393 56.5353C46.8393 57.3353 49.7393 59.5353 51.5393 62.8353C53.3393 66.0353 53.7393 69.7353 52.9393 73.4353C52.0393 77.1353 49.9393 80.2353 46.9393 82.2353C44.8393 83.5353 42.3393 84.3353 39.8393 84.3353ZM40.7393 59.1353C38.8393 59.1353 36.9393 59.7353 35.2393 60.8353C32.8393 62.4353 31.1393 64.9353 30.4393 67.8353C29.0393 73.8353 32.2393 79.7353 37.6393 81.0353C40.2393 81.6353 42.9393 81.1353 45.3393 79.5353C47.7393 77.9353 49.4393 75.4353 50.1393 72.5353C50.8393 69.6353 50.4393 66.6353 49.0393 64.1353C47.6393 61.6353 45.4393 59.9353 42.8393 59.3353C42.1393 59.2353 41.4393 59.1353 40.7393 59.1353Z" fill="#FF626D"/>
<path d="M98.3394 153.835C100.935 153.835 103.039 151.731 103.039 149.135C103.039 146.54 100.935 144.435 98.3394 144.435C95.7437 144.435 93.6394 146.54 93.6394 149.135C93.6394 151.731 95.7437 153.835 98.3394 153.835Z" fill="#F4B640"/>
<path d="M88.3394 158.635C90.9351 158.635 93.0394 156.531 93.0394 153.935C93.0394 151.34 90.9351 149.235 88.3394 149.235C85.7437 149.235 83.6394 151.34 83.6394 153.935C83.6394 156.531 85.7437 158.635 88.3394 158.635Z" fill="#F4B640"/>
<path d="M76.8394 158.435C79.4351 158.435 81.5394 156.331 81.5394 153.735C81.5394 151.14 79.4351 149.035 76.8394 149.035C74.2437 149.035 72.1394 151.14 72.1394 153.735C72.1394 156.331 74.2437 158.435 76.8394 158.435Z" fill="#F4B640"/>
<path d="M66.9394 152.535C69.5351 152.535 71.6394 150.431 71.6394 147.835C71.6394 145.24 69.5351 143.135 66.9394 143.135C64.3436 143.135 62.2394 145.24 62.2394 147.835C62.2394 150.431 64.3436 152.535 66.9394 152.535Z" fill="#F4B640"/>
<path d="M111.439 153.435C111.439 153.435 97.7394 170.635 75.7394 165.335C66.4394 163.135 59.0394 154.135 57.1394 150.035C57.1394 150.035 38.4394 170.535 48.4394 194.335C58.4394 218.135 53.4394 219.135 46.8394 237.035C35.2394 268.535 45.1394 317.135 69.3394 343.335C81.2394 356.135 74.1394 347.735 83.2394 330.235C98.5394 300.635 110.539 257.435 98.5394 231.335C74.6394 180.035 121.839 180.935 111.439 153.435Z" fill="#FF626D"/>
<path d="M110.539 153.435C110.539 153.435 134.239 167.435 140.139 181.235C143.439 189.035 126.939 212.235 110.739 220.035L102.939 210.035L126.939 184.935L111.239 169.135L110.539 153.435Z" fill="#FF626D"/>
<path d="M37.7394 213.735C37.7394 213.735 41.0394 217.835 40.6394 221.035C40.6394 221.035 38.3394 215.635 37.7394 217.435C36.1394 222.535 38.5394 226.735 44.1394 227.435C49.8394 228.135 57.3394 220.135 56.8394 215.235C56.4394 210.235 47.8394 207.335 47.8394 207.335L37.7394 213.735Z" fill="white"/>
<path d="M57.3394 150.735C35.7394 150.735 16.3394 165.935 10.7394 179.035C7.53937 186.435 26.1394 209.735 41.4394 217.235L48.8394 207.735L21.6394 181.635L52.0394 165.035L57.3394 150.735Z" fill="#FF626D"/>
<path d="M110.739 219.935C110.739 219.935 106.039 222.735 105.139 226.035C105.139 226.035 109.439 221.535 109.339 223.535C109.039 229.135 105.139 232.435 99.3395 231.035C93.4395 229.635 89.0394 219.035 91.2394 214.335C93.4394 209.635 102.939 209.835 102.939 209.835L110.739 219.935Z" fill="white"/>
</svg>

<svg width="164" height="232" fill="none" xmlns="http://www.w3.org/2000/svg"><path d="M154.939 134.535c-12.5-12.9.9-23.2 7.2-52.8 2.5-11.7 2.7-23.4-2.9-31.6-9.9-14.2-30.8-16.9-31-16.9l-3.7-.4-.9-3.5c-3.2-15.7-15.1-28.6-41.9-29.3-33.7-.9-57.2 15.4-71.2 45.7-6.7 14.5-11 31.6-10.5 48.2.3 11.5 2.5 20.7 6.6 27.9 4.3 7.6 10.1 13.4 17.1 17.4 7.1 4 14.8 6 22.9 6 9.6 0 18-2.6 24.3-7.6 4.1-3.3 7.3-7.2 9.7-12.3-4.7 2.1-10.5 3.5-17.4 3.6-10.9.1-20.1-3.4-27-10.2-6.8-6.7-10.2-15.8-10.2-26.9 0-14.1 4-25.9 11.7-34.9 8.2-9.6 18.9-14.5 31.9-14.5 11.1 0 20.2 3.5 26.9 10.4 6.7 6.8 10.1 15.9 10.1 26.9 0 5.6-.8 9.6-1.8 15.2l-.1.3-4.7 20.7c-.8 3.8-1.3 7.4-1.3 10.8 0 9.2 2.5 15.6 7.9 20.4l.1.1c5.6 4.9 14 7.4 25 7.4 9.2 0 16.7-3.8 23.7-12.1 1.6-1.9 3.1-3.5 4.5-4.9-1.8-.7-3.6-1.6-5-3.1z" fill="#3E40F8"/><path d="M58.04 108.535c-.5 0-1-.1-1.6-.2-3.4-.7-5.9-3-7.1-6.6-.4-1.2.3-2.4 1.4-2.8 1.2-.4 2.4.3 2.8 1.4.7 2.1 1.9 3.2 3.8 3.6 2.9.6 5.2-2.6 5.8-3.6.7-1 2-1.3 3-.7 1 .7 1.3 2 .7 3-2.4 3.9-5.6 5.9-8.8 5.9zm-10.9-13.4c-.6 0-1.1-.2-1.6-.6l-6.6-6.6 2.3-1.5c8.5-5.6 8.1-14.6 8.1-15-.1-1.2.9-2.2 2.1-2.3 1.2-.1 2.2.8 2.3 2 0 .5.6 10.4-7.9 17.4l2.9 2.9c.9.9.9 2.3 0 3.1-.5.4-1 .6-1.6.6zm27.2-10.4c-.5 0-1-.1-1.6-.2-4.3-.9-7-4.2-7.7-9.3-.1-1.2.7-2.3 1.9-2.4 1.2-.1 2.3.7 2.4 1.9.3 2.2 1.2 4.9 4.2 5.5 2.9.6 5.2-2.6 5.8-3.6.7-1 2-1.3 3-.7 1 .7 1.3 2 .7 3-2.3 3.7-5.5 5.8-8.7 5.8z" fill="#3E40F8"/><path d="M71.24 92.635c-1 0-2.1-.1-3.1-.4-3.7-.9-6.7-3.3-8.6-6.7-1.9-3.4-2.4-7.4-1.5-11.3.9-3.9 3.2-7.3 6.4-9.4 3.3-2.2 7.1-2.9 10.7-2 7.5 1.8 12.1 9.9 10.1 18-.9 3.9-3.2 7.3-6.4 9.4-2.3 1.6-4.9 2.4-7.6 2.4zm.9-27.1c-2.1 0-4.1.6-6 1.9-2.6 1.7-4.4 4.5-5.2 7.6-.8 3.2-.3 6.4 1.2 9.2 1.5 2.7 3.9 4.5 6.7 5.2 2.8.7 5.8.1 8.4-1.6 2.6-1.7 4.4-4.5 5.2-7.6 1.6-6.5-2-13-7.9-14.4-.8-.3-1.6-.3-2.4-.3z" fill="#FF626D"/><path d="M59.84 74.435h-.4c-.8-.2-1.3-1-1.1-1.8.5-1.9-.3-3.7-1.6-4-1.3-.3-2.8 1-3.2 2.9-.2.8-1 1.3-1.8 1.1-.8-.2-1.3-1-1.1-1.8.8-3.5 3.9-5.8 6.9-5.1 2.9.7 4.6 4.1 3.8 7.7-.2.5-.9 1-1.5 1z" fill="#FF626D"/><path d="M44.74 78.135c-.6 0-1.3-.1-1.9-.2-3.6-.7-6-4-6.8-6.8-.3-1.2-.4-2.4-.2-3.4.2-1.2 1.4-2 2.6-1.7 1.2.2 2 1.4 1.7 2.6-.1.4 0 .9.1 1.4.4 1.5 1.7 3.3 3.4 3.7 3 .6 4.9-1.5 6-3.4.6-1.1 1.9-1.4 3-.8 1.1.6 1.4 1.9.8 3-2.1 3.6-5.2 5.6-8.7 5.6z" fill="#3E40F8"/><path d="M88.14 81.835c-.7 0-1.4-.6-1.5-1.3-.1-.8.5-1.6 1.3-1.7l23.099-3c.8-.1 1.6.5 1.7 1.3.1.8-.5 1.6-1.3 1.7l-23.1 3h-.2zm-48.3 2.5c-1 0-1.9-.1-2.9-.3-7-1.7-11.3-9.2-9.5-16.8.9-3.7 3-6.8 6-8.8 3-2 6.6-2.7 10-1.9 3.4.8 6.3 3 8.1 6.3 1.8 3.2 2.2 6.9 1.4 10.6-.9 3.7-3 6.8-6 8.8-2.1 1.3-4.6 2.1-7.1 2.1zm.9-25.2c-1.9 0-3.8.6-5.5 1.7-2.4 1.6-4.1 4.1-4.8 7-1.4 6 1.8 11.9 7.2 13.2 2.6.6 5.3.1 7.7-1.5 2.4-1.6 4.1-4.1 4.8-7 .7-2.9.3-5.9-1.1-8.4-1.4-2.5-3.6-4.2-6.2-4.8-.7-.1-1.4-.2-2.1-.2z" fill="#FF626D"/><path d="M98.34 153.835a4.7 4.7 0 100-9.4 4.7 4.7 0 000 9.4zm-10 4.8a4.7 4.7 0 100-9.4 4.7 4.7 0 000 9.4zm-11.5-.2a4.7 4.7 0 100-9.4 4.7 4.7 0 000 9.4zm-9.9-5.9a4.7 4.7 0 100-9.4 4.7 4.7 0 000 9.4z" fill="#F4B640"/><path d="M111.439 153.435s-13.7 17.2-35.7 11.9c-9.3-2.2-16.7-11.2-18.6-15.3 0 0-18.7 20.5-8.7 44.3 10 23.8 5 24.8-1.6 42.7-11.6 31.5-1.7 80.1 22.5 106.3 11.9 12.8 4.8 4.4 13.9-13.1 15.3-29.6 27.3-72.8 15.3-98.9-23.9-51.3 23.3-50.4 12.9-77.9z" fill="#FF626D"/><path d="M110.539 153.435s23.7 14 29.6 27.8c3.3 7.8-13.2 31-29.4 38.8l-7.8-10 24-25.1-15.7-15.8-.7-15.7z" fill="#FF626D"/><path d="M37.74 213.735s3.3 4.1 2.9 7.3c0 0-2.3-5.4-2.9-3.6-1.6 5.1.8 9.3 6.4 10 5.7.7 13.2-7.3 12.7-12.2-.4-5-9-7.9-9-7.9l-10.1 6.4z" fill="#fff"/><path d="M57.34 150.735c-21.6 0-41 15.2-46.6 28.3-3.2 7.4 15.4 30.7 30.7 38.2l7.4-9.5-27.2-26.1 30.4-16.6 5.3-14.3z" fill="#FF626D"/><path d="M110.739 219.935s-4.7 2.8-5.6 6.1c0 0 4.3-4.5 4.2-2.5-.3 5.6-4.2 8.9-10 7.5-5.9-1.4-10.3-12-8.1-16.7 2.2-4.7 11.7-4.5 11.7-4.5l7.8 10.1z" fill="#fff"/></svg>
